X: 1
T: Winter Wonderland
M: C
L: 1/8
K: Eb
BB|"Ebmaj9"B6"Ab13"x2BB|"Gm7"G2B4"C9"x2BB|"F-7"B6 BB|
"Bb7"A2B4zB|"Am7"dddc-"D9"c3 c|"Gm7"BBBA-"C9#5"A4|
"F7"GGGG "Bb9"FFFF|[1 "Eb9"E6"C7#5#9"x3"Fm7"x2"Bb13"BB:|[2"Eb6"E8||
"Gmaj7"DD=BB "Am7/D"=EEcc|"Gmaj7"=B2G6|"Gmaj7"DD=BB "Am7/D"=EEcc|
"Gmaj7"=B6z2|"Bbmaj7"FFdd "Cm7/F"GGee|"Bbmaj7"d2B4B2|
"C7"ddGG "F7"cc"B9b5"FF|"Bb9sus4"B6"Bb9"x2!D.C.!||
